X:1
T:Sealand Piano
T:Sealand Piano
T:Basil Simonenko
C:Basil Simonenko
%%score { 1 | 2 }
L:1/8
Q:1/4=114
M:3/4
K:A
V:1 treble nm="Piano" snm="Pno."
V:2 bass 
V:1
"^Moderato" z A, A,A, EE | AA- A4- | A6 | z6 ||S A2 AB cd | e2 ed cd | c2 cd cB | A2 B2 c2 | %8
 B2 Bc BA | G2 GA GF | E2 F2 G2 | A2 B2 c2 | A2 AB cd | e2 ef ed | c2 cd cB | c2 dc BA | B2 Bc BA | %17
 B2 cB A2 | G2 A2 B2 | A4 c2 | A6!fine! || a2 a=g fg | f2 f=g fe | d2 de f2 | =g2 f2 e2 | %25
 e2 ed cd | c2 cd cB | A2 B2 c2 | d2 e2 f2 | g6- | g6!D.S.! |] %31
V:2
 A,,6- | A,,6 | [A,,E,A,]6 | [A,,E,A,]6 || [A,,E,A,]6 | [A,,E,A,]6 | [A,,E,A,]6 | [A,,E,A,]6 | %8
 [E,,B,,E,]6 | [E,,B,,E,]6 | [E,,B,,E,]6 | [E,,B,,E,]6 | [A,,E,A,]6 | [A,,E,A,]6 | [A,,E,A,]6 | %15
 [A,,E,A,]6 | [E,,B,,E,]6 | [E,,B,,E,]6 | [E,,B,,E,]6 | [A,,E,A,]6 | [A,,E,A,]6 || [D,A,D]6 | %22
 [D,A,D]6 | [D,A,D]6 | [D,A,D]6 | [A,,E,A,]6 | [A,,E,A,]6 | [A,,E,A,]6 | [A,,E,A,]6 | [E,,B,,E,]6 | %30
 [E,,B,,E,]6 |] %31

